src/shared/assets/images/share.svg

<svg width="23" height="18" viewBox="0 0 23 18" fill="none" xmlns="http://www.w3.org/2000/svg">
<path d="M0 13.8672C0 14.1081 0.0830077 14.3034 0.249023 14.4531C0.415039 14.6028 0.631511 14.6777 0.898438 14.6777H3.125C3.93229 14.6777 4.60775 14.5442 5.15137 14.2773C5.69499 14.0104 6.26302 13.5352 6.85547 12.8516L12.7734 5.94727C13.0534 5.62174 13.3252 5.36133 13.5889 5.16602C13.8526 4.97071 14.1292 4.8291 14.4189 4.74121C14.7086 4.65332 15.0325 4.60938 15.3906 4.60938H17.3828V6.81641C17.3828 7.01172 17.4365 7.16309 17.5439 7.27051C17.6514 7.37793 17.806 7.43164 18.0078 7.43164C18.0989 7.43164 18.1885 7.41536 18.2764 7.38281C18.3643 7.35026 18.444 7.30468 18.5156 7.24609L22.207 4.18945C22.3633 4.05924 22.4414 3.90625 22.4414 3.73047C22.4414 3.55469 22.3633 3.39844 22.207 3.26172L18.5156 0.195312C18.444 0.136719 18.3643 0.0927736 18.2764 0.0634767C18.1885 0.0341797 18.0989 0.0195312 18.0078 0.0195312C17.806 0.0195312 17.6514 0.0716145 17.5439 0.175781C17.4365 0.279948 17.3828 0.429687 17.3828 0.625V2.97852H15.3418C14.528 2.97852 13.8477 3.11198 13.3008 3.37891C12.7539 3.64584 12.1875 4.1211 11.6016 4.80469L5.69336 11.709C5.27018 12.2038 4.86816 12.5521 4.4873 12.7539C4.10645 12.9557 3.66862 13.0566 3.17383 13.0566H0.898438C0.631511 13.0566 0.415039 13.1315 0.249023 13.2812C0.0830077 13.431 0 13.6263 0 13.8672ZM0 3.79883C0 4.03972 0.0830077 4.23503 0.249023 4.38477C0.415039 4.53451 0.631511 4.60938 0.898438 4.60938H3.17383C3.67513 4.60938 4.11458 4.71029 4.49219 4.91211C4.86979 5.11393 5.27018 5.46224 5.69336 5.95703L11.6016 12.8613C12.1875 13.5449 12.7539 14.0185 13.3008 14.2822C13.8477 14.5459 14.528 14.6777 15.3418 14.6777H17.3828V17.0996C17.3828 17.2949 17.4365 17.4447 17.5439 17.5488C17.6514 17.653 17.806 17.7051 18.0078 17.7051C18.0989 17.7051 18.1885 17.6904 18.2764 17.6611C18.3643 17.6318 18.444 17.5879 18.5156 17.5293L22.207 14.4727C22.3633 14.3424 22.4414 14.1894 22.4414 14.0137C22.4414 13.8379 22.3633 13.6816 22.207 13.5449L18.5156 10.4785C18.444 10.4199 18.3643 10.3743 18.2764 10.3418C18.1885 10.3093 18.0989 10.293 18.0078 10.293C17.806 10.293 17.6514 10.3467 17.5439 10.4541C17.4365 10.5615 17.3828 10.7129 17.3828 10.9082V13.0566H15.3906C14.8567 13.0566 14.3929 12.9557 13.999 12.7539C13.6051 12.5521 13.1966 12.2038 12.7734 11.709L6.85547 4.80469C6.26302 4.1211 5.69499 3.64746 5.15137 3.38379C4.60775 3.12012 3.93229 2.98828 3.125 2.98828H0.898438C0.631511 2.98828 0.415039 3.06152 0.249023 3.20801C0.0830077 3.35449 0 3.55143 0 3.79883Z" fill="white"/>
</svg>

<svg xmlns="http://www.w3.org/2000/svg" width="23" height="18" fill="none"><path fill="#fff" d="M0 13.867q0 .361.249.586.25.225.65.225h2.226q1.211 0 2.026-.4.816-.402 1.704-1.426l5.918-6.905a5 5 0 0 1 .816-.781q.396-.293.83-.425a3.3 3.3 0 0 1 .972-.132h1.992v2.207q0 .294.16.455.162.16.465.16.136 0 .268-.048a.8.8 0 0 0 .24-.137l3.691-3.057a.58.58 0 0 0 .234-.459q0-.263-.234-.468L18.516.195a.8.8 0 0 0-.24-.132.9.9 0 0 0-.268-.043q-.303 0-.464.156t-.161.449v2.354h-2.041q-1.22 0-2.041.4-.82.4-1.7 1.426l-5.908 6.904q-.635.742-1.206 1.045-.57.303-1.313.303H.898q-.4 0-.649.224a.75.75 0 0 0-.249.586M0 3.8q0 .36.249.586.25.225.65.224h2.275q.751 0 1.318.303t1.201 1.045l5.909 6.904q.878 1.026 1.699 1.421.82.396 2.04.396h2.042V17.1q0 .293.16.449.162.156.465.156.136 0 .268-.044a.8.8 0 0 0 .24-.132l3.691-3.056q.234-.196.234-.46 0-.262-.234-.468l-3.691-3.066a.83.83 0 0 0-.508-.186q-.303 0-.464.161t-.161.454v2.149H15.39q-.801 0-1.392-.303t-1.226-1.045L6.855 4.805q-.888-1.026-1.704-1.421-.815-.396-2.026-.396H.898q-.4 0-.649.22a.75.75 0 0 0-.249.59"/></svg>
